X:1
T: The Duke of Richmond's Birthday
C:Alexander Walker
R:Strathspey
Q: 128
K:E
M:4/4
L:1/16
|:G2|EE3 F3B e3B g3e|f3c e3G F3E C3F|EE3 F3B e3f g3e|f3c B3A GE3 E3G|
EE3 F3B e3B g3e|f3c e3G F3E C3F|C3E B,3E AGFE GB3|ce3 B3A GE3 E2f2|
e3B g3e a3f g3f|e3B g3e fc3 c3d|e3B g3e a3f g3d|e3c B3A GE3 E3B|
e3B g3e a3f g3f|e3B g3e fc3 c3d|e3f gfec BG3 G3B|c3f B3d eE3 E2:|
